X: 1
T: String Quartet in A Major opus 20 no 6 mvt 3
C: Franz Joseph Haydn
%%abc-version 2.0
%%abcx-abcm2ps-target-version 5.9.1 (29 Sep 2008)
%%abc-creator hum2abc beta
%%abcx-conversion-date 2021/02/14 14:38:15
%%abc-copyright Copyright (c) 1994, 2000 Center for Computer Assisted Research in the Humanities
%%abc-edited-by Frances Bennion
%%abcx-initial-encoding-date 1997/04/15
%%gracespace 0 6 6
%%humdrum-veritas 488075868
%%humdrum-veritas-data 2877095196
%%linebreak <none>
%%barnumbers 0
L: 1/4
M: 3/4
N: Derived from op20n6-03.krn
Q: "Menuetto"
%%staves [1 2 3 4]
V: 1
V: 2
V: 3 clef=alto
V: 4 clef=bass
K: A
[V:1]A3 [I:setbarnb2] |
[V:2]C C C |
[V:3]E E E |
[V:4]A, A, A, |
[V:1]G/A/ B/A/ c/C/ |
[V:2]D C z |
[V:3]E2 z |
[V:4]B, A, z |
[V:1]E2 D |
[V:2]C2 B, |
[V:3]E, E, E, |
[V:4]E, E, E, |
[V:1]C z e/d//e// |
[V:2]A, z C |
[V:3]A, z2 |
[V:4]A,, A, z |
[V:1]f d c |
[V:2]D F E |
[V:3]z3 |
[V:4]z3 |
[V:1]B A/G/ A |
[V:2]D E C |
[V:3]z3 |
[V:4]z3 |
[V:1]G/e/ b b |
[V:2]B, g g |
[V:3][EB,] [EB,] [B,E] |
[V:4]E, E, E, |
[V:1]b z2 |
[V:2]g z2 |
[V:3][EB,] z2 |
[V:4]E, z2 |
[V:1]b/e/ G G |
[V:2]z B, B, |
[V:3]z E E |
[V:4]z E, E, |
[V:1]c'/e/ A A |
[V:2]z C C |
[V:3]z E E |
[V:4]z A,, A,, |
[V:1]G/e/ b/c'/ d'/c'/ |
[V:2]z g/a/ b/a/ |
[V:3]z E E |
[V:4]z E, E, |
[V:1]b z2 |
[V:2]g z2 |
[V:3]E/A/ G/F/ E/D/ |
[V:4]E,/F,/ E,/D,/ C,/B,,/ |
[V:1]e'2 c'/a/ |
[V:2]z A A |
[V:3]C C C |
[V:4]A,, z2 |
[V:1]f/d/ d' z |
[V:2]A z2 |
[V:3]D z2 |
[V:4]z3 |
[V:1]e c' b |
[V:2]z a g |
[V:3]z E E |
[V:4]z3 |
[V:1]a z2 |
[V:2]a z2 |
[V:3]A z2 |
[V:4]A,, C, E, |
[V:1]A3 |
[V:2]C C C |
[V:3]E E E |
[V:4]A, A, A, |
[V:1]G A/B/ c/C/ |
[V:2]D C z |
[V:3]E2 z |
[V:4]B, A, z |
[V:1]E2 D |
[V:2]C2 B, |
[V:3]E, E, E, |
[V:4]E, E, E, |
[V:1]C z2 |
[V:2]A, z2 |
[V:3]A, z2 |
[V:4]A,, z2 |
[V:1]A, C D |
[V:2]z3 |
[V:3]z3 |
[V:4]z3 |
[V:1]E/C/ D/E/ F/G/ |
[V:2]z3 |
[V:3]z3 |
[V:4]z3 |
[V:1]A G F |
[V:2]z3 |
[V:3]F, E, D, |
[V:4]A,, A,, A,, |
[V:1]E2 ^E |
[V:2]z3 |
[V:3]C,2 A, |
[V:4]A,,2 C,, |
[V:1]F A C |
[V:2]z3 |
[V:3]A,3- |
[V:4]D,,2 E,, |
[V:1]D F A, |
[V:2]z3 |
[V:3]A,2 ^D, |
[V:4]F,,3 |
[V:1]G,/B,/ D C |
[V:2]z3 |
[V:3]E,/G,/ B, A, |
[V:4]E,, E,, E,, |
[V:1]B,2 z |
[V:2]z3 |
[V:3]G,2 z |
[V:4]E,,2 z |
[V:1]B,2 C |
[V:2]z3 |
[V:3]G,2 A, |
[V:4]z E,, E,, |
[V:1]D G, A, |
[V:2]z3 |
[V:3]B, D, C, |
[V:4]E,, z2 |
[V:1]B, B, C |
[V:2]z3 |
[V:3]G, G, A, |
[V:4]z E,, E,, |
[V:1]D z2 |
[V:2]z3 |
[V:3]B, z2 |
[V:4]E,, z2 |
[V:1]A, C D |
[V:2]z3 |
[V:3]z3 |
[V:4]z3 |
[V:1]E/C/ D/E/ F/G/ |
[V:2]z3 |
[V:3]z3 |
[V:4]z3 |
[V:1]A G F |
[V:2]z3 |
[V:3]F, E, D, |
[V:4]A,, A,, A,, |
[V:1]E F/G/ A/B/ |
[V:2]z3 |
[V:3]C, D,/E,/ F,/G,/ |
[V:4]A,, z2 |
[V:1]c B A |
[V:2]z3 |
[V:3]A, G, F, |
[V:4]z3 |
[V:1]G/A/ G/A/ B/c/ |
[V:2]z3 |
[V:3]E,/F,/ E,/F,/ G,/A,/ |
[V:4]E,,3 |
[V:1]d d d |
[V:2]z3 |
[V:3]B, B, B, |
[V:4]E,,/F,,/ E,,/F,,/ G,,/A,,/ |
[V:1]d2 c |
[V:2]z3 |
[V:3]B,2 A, |
[V:4]G,, E,, A,, |
[V:1]B A G |
[V:2]z3 |
[V:3]D C B, |
[V:4]D,, E,, E,, |
[V:1]A3 |]
[V:2]z3 |]
[V:3]A,2 z |]
[V:4]A,,2 z |]

